X: 32669
T: Pointe Au Pic
R: reel
M: 4/4
K: Cmajor
geg|:decd BcAB|GG G3 geg|decd BcAc|BB B3 geg|
decd BcAc|BB B4 g2|ageg agec|GG G3 gec|
decd BcAB|GG G2 G2 AB|c2 Bc d2 c2|AGAB AGAB|
c2 Bcde cd|eceg a3 e|gffg fdAB|1 c4 cgeg:|2 c4 B4||
A3 {A}B cBcd|eaae aAaa|eaae aAaa|eaae abae|
{DEF}G3 {G}A BGBd|gg g3 GBd|gg g3 GBd|g^fga g=fed|
A3 {A}B cBcd|eaae aAaa|eaae aAaa|eaae a2 b2|
c'4 c'2 ef|g^fga gecd|egec dedB|1 c6 B2:|2 c2 z2 [c4E4]||

